X:1
T:Title
%%score { ( 1 3 5 ) | ( 2 4 ) }
L:1/8
M:4/4
K:Bb
V:1 treble nm="Grand Piano"
V:3 treble 
V:5 treble 
V:2 bass 
V:4 bass 
V:1
 z4 z2[Q:1/4=100] [B,D][CE] | [DF]2 [DB]2 [Fd]2 [Ec][DB] | B2 A2 A2 CD | E2 F2 A3 G | %4
 [DF]6 [B,D][CE] | [DF]2 [DB]2 [Fd]2 [Ec][DB] | A2 B2 c2 cc | [=Ec]3 [EB] [EA]2 [EG]2 |[M:3/4] c6 | %9
[M:1/4] d>c |[M:4/4] [DB]3 [FA] G2 B2 | F6[K:bass] z2 | [DF]2 [Fd]2 [=Ed]3 [Ec] | c6 z2 | %14
 [Fd]2 [Fd]2 [Ge]<[Fd] [Fc]>[FB] | [EG]2 [EB]2 [EG]<[DF] [B,D][CE] | [DF]2 [Fd]2 [Fd]3 [Ec] | %17
 B6 z2 |] %18
V:2
 z4 z2 [B,,F,][B,,F,] | [B,,B,]2 [B,,F,]2 [B,,B,]2 [B,,F,][B,,B,] | %2
 [F,CE]2 [F,CE]2 [F,CE]2 [F,A,][F,B,] | [F,C]2 [F,D]2 [F,CE]3 [F,A,E] | [B,,B,]6 [B,,F,][B,,F,] | %5
 [B,,B,]2 [B,,F,]2 [B,,B,]2 [B,,B,][B,,B,] | [F,CF]2 [G,C=E]2 [A,CF]2 [F,A,F][F,A,F] | %7
 [C,G,]3 [C,G,] [C,C]2 [C,B,]2 |[M:3/4] [F,,F,A,E]6 |[M:1/4] [F,A,F]>[F,E] | %10
[M:4/4] [B,,F,]3 [B,,B,] [E,B,E]2 [G,B,E]2 | [B,D]6 [B,,F,B,][B,,F,] | %12
 [B,,B,]2 [B,,B,]2 [C,G,]3 [C,B,] | [F,A,F]2 [G,B,]2 A,-[E,A,]D,[C,A,] | %14
 [B,,B,]2 [B,,B,]2 [B,,B,]<[B,,B,] [C,A,]>[D,B,] | [E,B,]2 [E,G,]2 [B,,B,]<[B,,B,] [B,,F,][B,,F,] | %16
 [B,,B,]2 [B,,B,]2 [F,A,]3 [F,A,] | F,2 z2 z4 |] %18
V:3
 x8 | x8 | x8 | x8 | x8 | x8 | x8 | x8 |[M:3/4] x6 |[M:1/4] x2 |[M:4/4] x8 | %11
 z2[K:bass] F,D, B,,2 D[CE] | x8 | z2 =E2 _EC[B,FB][Fc] | x8 | x8 | x8 | D-[DE] z _D =D2 z2 |] %18
V:4
 x8 | x8 | x8 | x8 | x8 | x8 | x8 | x8 |[M:3/4] x6 |[M:1/4] x2 |[M:4/4] x8 | x8 | x8 | z4 .F,2 z2 | %14
 x8 | x8 | x8 | B,,-[B,,-G,][B,,-F,][B,,-F,] [B,,F,]2 z2 |] %18
V:5
 x8 | x8 | x8 | x8 | x8 | x8 | x8 | x8 |[M:3/4] x6 |[M:1/4] x2 |[M:4/4] x8 | x2[K:bass] x6 | x8 | %13
 x8 | x8 | x8 | x8 | z2 D2 z4 |] %18

